X:531
T:Bill Sullivan's
R:Polka
O:Ireland
B:Irish Traditional Music Session Tunes 1
S:My arrangement from various sources
Z:Transcription, arrangement, chords:Mike Long
M:2/4
L:1/8
K:A
"A"a2 "(D)"a>f|"A"ec "(D)"a>f|"A"ec "(D)"a>f|"A"ec "E"BA|\
"A"a2 "(D)"a>f|"A"ec "(D)"a>f|"A"ce "E"B>c|"A"BA A2:|
|:"A"ce ec|"D"df f>d|"A"ce eA/B/|"E"cB B>A|\
"A"ce ec|"D"df f>d|"A"ce "E"BB/c/|"A"BA A2:|
